X:26
T:Rainbow THO4.026, The
M:2/2
L:1/8
Z:vmp. Peter Dunk 2010/11.from a transcription by Fynn Titford-Mock 2007
B:Thompson's Compleat Collection of 200 Favourite Country Dances Volume IV.
Q:1/2=74
K:G
g2 dB c(f/g/) ac|BG TG2 AFDd|g2 dB c(f/g/) ac|BedF G2G,2::\
d2 ef g3 b|(af)!wedge!e!wedge!d (^cd)!wedge!c!wedge!A|
(af)!wedge!d!wedge!A (ge)!wedge!^c!wedge!A|Bd^ce d2D2|\
dedB cf a2|cdcA Bd g2|egce dgAe|dcBA G2G,2:|
